dist/img/decoration-05.svg

<svg width="195" height="195" viewBox="0 0 195 195" fill="none" xmlns="http://www.w3.org/2000/svg">
<path d="M97.5 0L97.5189 97.4041L134.812 7.42172L97.5543 97.419L166.443 28.5571L97.581 97.4457L187.578 60.1882L97.5959 97.4811L195 97.5L97.5959 97.5189L187.578 134.812L97.581 97.5543L166.443 166.443L97.5543 97.581L134.812 187.578L97.5189 97.5959L97.5 195L97.4811 97.5959L60.1882 187.578L97.4457 97.581L28.5571 166.443L97.419 97.5543L7.42172 134.812L97.4041 97.5189L0 97.5L97.4041 97.4811L7.42172 60.1882L97.419 97.4457L28.5571 28.5571L97.4457 97.419L60.1882 7.42172L97.4811 97.4041L97.5 0Z" fill="#222831" stroke="#222831" stroke-width="1.9277"/>
</svg>

<svg width="195" height="195" fill="none" xmlns="http://www.w3.org/2000/svg"><path d="M97.5 0l.019 97.404 37.293-89.982-37.258 89.997 68.889-68.862-68.862 68.889 89.997-37.258-89.982 37.293L195 97.5l-97.404.019 89.982 37.293-89.997-37.258 68.862 68.889-68.889-68.862 37.258 89.997-37.293-89.982L97.5 195l-.019-97.404-37.293 89.982 37.258-89.997-68.889 68.862L97.42 97.554 7.422 134.812l89.982-37.293L0 97.5l97.404-.019L7.422 60.188l89.997 37.258-68.862-68.889L97.446 97.42 60.188 7.422l37.293 89.982L97.5 0z" fill="#222831" stroke="#222831" stroke-width="1.928"/></svg>
